!!!!SEGMENT: pl-sa--564-a-ix-44--002_anonim--polonez-g.krn
!!!cenid: 18xx:589
!!!COM: Anonim
!!!COM-rismid: pe30004985
!!!CDT:
!!!CNT:
!!!OTL: Polonez G
!!!PDT:
!!!AGN: Secular; Polonaise
!!!SMS-siglum: PL-SA
!!!SMS-shelfmark: 564/A IX 44
!!!SMS-shelfwork: 002 W
!!!SMS-variant:
!!!SMS-altvar:
!!!NIFC-rismid: 1001065437
!!!URL-scan: http://bc.bdsandomierz.pl/dlibra/publication/1320/edition/1288/content
!!!ONB-nifc: Str. 2
!!!key:
**kern	**kern
*part2	*part1
*staff2	*staff1
*Iempty	*Iempty
*I"	*I"
*>[A,A,B,B]	*>[A,A,B,B]
*clefF4	*clefG2
*k[f#]	*k[f#]
*G:	*G:
*M3/4	*M3/4
=1	=1
*>A	*>A
!	!LO:TX:a:t=No 3t
!	!LO:TX:a:t=Polon
8r	8b\L 8dd
!LO:TX:a:t=P:problem:mixed beam	!
8G\L	8dd\J 8bb
8B\	4.dd\ 4.bb
8G\	.
8d\	.
8D/J	8cc\ 8aa
=2	=2
4G\	16aa\LL
.	16bb\
.	16ff#\
.	16gg\JJ
8r	4.b\ 4.gg
8G\	.
4GG/	.
.	8f#\ 8dd
=3	=3
8r	8f#\L 8dd
!LO:TX:a:t=P:problem:mixed beam	!
8D\L	8aa\J 8ccc
8F#\	4.aa\ 4.ccc
8D\	.
8G\	.
8GG/J	8gg\ 8bb
=4	=4
4D\	16bb\LL
.	16ccc\
.	16gg#X\
.	16aa\JJ
8r	4.ff#\ 4.aa
!LO:TX:a:t=P:problem:mixed beam	!
8d\L	.
8D/	.
8d\J	8dd\ 8ff#
=5	=5
16G\LL	8b\L 8dd 8gg
16d\	.
16B\	(32gg\LL
.	32aa\
16d\JJ	32bb\)
.	32ccc\JJJ
*rep	*
16G\LL	8ddd\L
16d\	.
16B\	8bb\
16d\JJ	.
*Xrep	*
*rep	*
16G\LL	8gg\
16d\	.
16B\	8ffn\J
16d\JJ	.
*Xrep	*
=6	=6
16G\LL	16gg\LL
16e\	16ffn\
16c\	16ee\
16e\JJ	16ff\JJ
*rep	*
16G\LL	4.cc\ 4.ee
16e\	.
16c\	.
16e\JJ	.
*Xrep	*
*rep	*
16G\LL	.
16e\	.
16c\	8gg#X\
16e\JJ	.
*Xrep	*
=7	=7
16F#\LL	16aaT\LL
16d\	16gg#X\
16A\	16aa\
16d\JJ	16bb\JJ
*rep	*
16F#\LL	16cccT\LL
16d\	16bb\
16A\	16ccc\
16d\JJ	16ddd\JJ
*Xrep	*
*rep	*
16F#\LL	16eee\LL
16d\	16ccc\
16A\	16bb\
16d\JJ	16aa\JJ
*Xrep	*
!!LO:LB:g=original
=8	=8
4G\	16ggn\LL
.	16ff#\
.	16bb\
.	16aa\JJ
8r	4aa\
8D\	.
4GG/	8gg\
.	8r
=9||;	=9||;
8r	4.d/ 4.f# 4.a
8D\L 8F# 8A	.
*rep	*
!LO:TX:a:t=P:problem:repetycja oznaczona belką ósemkową z kropkami	!
8D\ 8F# 8A	.
8D\ 8F# 8A	16b\LL
.	16cc#X\JJ
8D\ 8F# 8A	16dd\LL
.	16ee\
8D\J 8F# 8A	16ff#\
.	16dd\JJ
*Xrep	*
=10	=10
*^	*
8r	8ryy	8f#/L 8dd
*tremolo	*tremolo	*
8A/L	8C#X\L 8E 8G	8e/J 8cc#X
8A/J	8C#X\ 8E 8G	4.e/ 4.cc#
*Xtremolo	*	*
8ryy	8C#X\J 8E 8G	.
*	*Xtremolo	*
4A/	4C#\ 4E 4G	.
.	.	8f#/ 8dd
*v	*v	*
=11	=11
*^	*
8r	8r	8.a/L 8.cc#X 8.ee
!LO:TX:a:t=P:problem:repetycje oznaczone belkami ósemkowymi z kropkami	!	!
8A/L	8C#X\L 8E 8G	.
.	.	16cc#/Jk
*rep	*rep	*
8A/	8C#\ 8E 8G	16a/LL
.	.	16b/
8A/	8C#\ 8E 8G	16cc#X/
.	.	16dd/JJ
8A/	8C#\ 8E 8G	16ee\LL
.	.	16ff#\
8A/J	8C#\J 8E 8G	16gg\
.	.	16ee\JJ
*Xrep	*Xrep	*
*v	*v	*
=12	=12
4d\	16ff#\LL
.	16dd\
.	16cc#X\
.	16ee\JJ
8r	4ee\
8A\	.
4D/	8dd\
!	!LO:TX:b:t=Da Capo Pol&colon;
.	8r
!!LO:LB:g=original
=13||;	=13||;
*>B	*>B
*M3/4	*M3/4
!LO:TX:a:t=P:problem:mixed beam	!LO:TX:a:t=Trio
8GG/L	4B/ 4d 4g
8G\J	.
4GG/	16g/LL
.	16a/
.	16b/
.	16cc/JJ
!	!LO:TUP:a:problem:klamra łukowa, numer
4r	24dd\LL
.	24ee\
.	24ff#\
.	24gg\
.	24ff#\
.	24ee\JJ
=14	=14
8r	8.b\L 8.dd
8D\L	.
.	16cc\Jk 16ee
8F#\	16dd\LL
.	16cc\
8D\J	16a\
.	16cc\JJ
4G\	8.a\L 8.cc
.	16g\Jk 16b
=15	=15
.	8qg/
8r	16gg\LL
.	16dd\
8GG/	16b\
.	16g\JJ
.	8qb/
8r	16bb\LL
.	16gg\
8G\	16dd\
.	16b\JJ
.	8qdd/
8r	8.ddd\L
8GG/	.
.	16bb\Jk
=16	=16
8r	16ddd\LL
.	16ccc\
8D\L	16aa\
.	16ff#\JJ
8F#\	16dd\LL
.	16ff#\
8D\J	16aa\
.	16ccc\JJ
4G\	8.ccc\L
.	16bb\Jk
=17	=17
8r	16bb\LL
.	16gg\
8G\L	16dd\J
!	!LO:N:vis=8.
.	8ddd\J
8D\	.
.	16dd\LL
8BB\J	16gg\
.	16bb\JJ
4GG/	16ddd\LL
.	16bb\
.	16gg\
.	16dd\JJ
!!LO:LB:g=original
=18	=18
8r	16ddd\LL
.	16ccc\
8D\L	16aa\
.	16ff#\JJ
8F#\	16dd\LL
.	16ff#\
8D\J	16aa\
.	16ccc\JJ
4G\	8.ccc\L
.	16bb\Jk
=19	=19
*	*Xtuplet
!	!LO:TUP:a:problem:w całym takcie klamry łukowe, pod nimi oznaczenia przypominające łuki
8G\L	24bb\LL
.	24dd\
.	24bb\JJ
8D\J	24ccc\LL
.	24dd\
.	24ccc\JJ
8G\L	24bb\LL
.	24dd\
.	24bb\JJ
8D\J	24ccc\LL
.	24dd\
.	24ccc\JJ
4G\	16.bb\LL
.	32ddd\JK
.	8dddT\J
=20	=20
8c\L	16eee\LL
.	16ccc\
8d\J	16aa\
.	16ff#\JJ
8r	4a\ 4ff#
8D\	.
4G\	8b\ 8gg
.	8r
=21||;	=21||;
*tremolo	*
!LO:TX:a:t=P:problem:2.\right	!
!LO:TX:a:t=P:problem:mixed beam	!
8DD/L	4.d/ 4.f# 4.a
8D\	.
8DD/	.
8D\	16g/LL 16b
.	16f#/JJ 16a
8DD/	8g/L 8b
8D\J	8a/J 8cc
*Xtremolo	*
=22	=22
8r	8.b/L 8.dd
8GG/L	.
.	16a/Jk 16cc
8BB/	8g/L 8b
8D/J	8g/ 8b
4G\	(8g/ 8b
.	8a/J 8cc)
!!LO:LB:g=original
=23	=23
8r	16cc#X\LL
.	16dd\JJ
8G\	4dd\
*tremolo	*
!LO:TX:a:t=P:problem:mixed beam	!
!LO:TX:a:t=P:problem:2.\right	!
8GG/L	.
8G\	16cc#\LL
.	16dd\JJ
8GG/	16ee\LL
.	16dd\
8G\J	16ccn\
.	16b\JJ
*Xtremolo	*
=24	=24
4D/	8.b/L 8.dd
.	16g/Jk 16b
8r	8d/L 8a
8d\	8f#/ 8a
4D/	8g/ 8b
!	!LO:TX:b:t=Trio Da Capo
.	8a/J 8cc
==	==
*-	*-
!!!system-decoration: [(s1,s2)]
!!!AIN: 2 empty
!!!ENC: Zofia Niedbalska
!!!END: 2020-12-06
!!!ENC: Andrzej Borzym
!!!END: 2020-06-19
